gama.ui.shared/icons_svg/light/viewers/add.row.svg

<svg height="25" viewBox="-912.5 -3452.889 25 25" width="25" xmlns="http://www.w3.org/2000/svg"><g fill="none"><path d="m-888-3448.549v16.32c0 2.1207-1.7192 3.84-3.84 3.84h-16.32c-2.1208 0-3.84-1.7193-3.84-3.84v-16.32c0-2.121 1.7192-3.84 3.84-3.84h16.32c2.1208 0 3.84 1.719 3.84 3.84z" fill="#fff"/><path d="m-888-3448.549v16.32c0 2.1207-1.7192 3.84-3.84 3.84h-16.32c-2.1208 0-3.84-1.7193-3.84-3.84v-16.32c0-2.121 1.7192-3.84 3.84-3.84h16.32c2.1208 0 3.84 1.719 3.84 3.84z" stroke="#000" stroke-linecap="round" stroke-linejoin="round" stroke-width=".25"/><path d="m-894.5-3436.056h-11c-.83 0-1.5.67-1.5 1.5v1c0 .83.67 1.5 1.5 1.5h11c.83 0 1.5-.67 1.5-1.5v-1c0-.83-.67-1.5-1.5-1.5zm0-1c1.38 0 2.5 1.12 2.5 2.5v1c0 1.38-1.12 2.5-2.5 2.5h-11c-1.38 0-2.5-1.12-2.5-2.5v-1c0-1.38 1.12-2.5 2.5-2.5z" fill="#66727e"/><path d="m-899.6951-3443.8416-.0043 3.5101c0 .1695-.1312.3005-.3006.3005s-.3006-.131-.3006-.3005v-3.5145h-3.5144c-.1694 0-.3006-.131-.3006-.3005s.1312-.3005.3006-.3005h3.5144l.0084-3.506c0-.1693.1313-.3006.3007-.3006.1693 0 .3006.1313.3006.3006v3.5144h3.5059c.1651-.0044.3006.1312.2964.2964.0042.1652-.1313.3006-.2964.2962h-3.5144z" fill="#518738"/><path d="m-899.6951-3443.8416-.0043 3.5101c0 .1695-.1312.3005-.3006.3005s-.3006-.131-.3006-.3005v-3.5145h-3.5144c-.1694 0-.3006-.131-.3006-.3005s.1312-.3005.3006-.3005h3.5144l.0084-3.506c0-.1693.1313-.3006.3007-.3006.1693 0 .3006.1313.3006.3006v3.5144h3.5059c.1651-.0044.3006.1312.2964.2964.0042.1652-.1313.3006-.2964.2962h-3.5144z" stroke="#518738" stroke-linejoin="round" stroke-width=".25"/></g></svg>

<?xml version="1.0" encoding="UTF-8" standalone="no"?>
<!DOCTYPE svg PUBLIC "-//W3C//DTD SVG 1.1//EN" "http://www.w3.org/Graphics/SVG/1.1/DTD/svg11.dtd">
<svg xmlns:dc="http://purl.org/dc/elements/1.1/" xmlns:xl="http://www.w3.org/1999/xlink" version="1.1" xmlns="http://www.w3.org/2000/svg" viewBox="-912.5 -3452.889 25 25" width="25" height="25">
  <defs/>
  <g id="SOURCES" stroke-dasharray="none" stroke="none" stroke-opacity="1" fill="none" fill-opacity="1">
    <title>SOURCES</title>
    <g id="SOURCES_Calque_2">
      <title>Calque 2</title>
      <g id="Graphic_9902">
        <path d="M -888 -3448.549 L -888 -3432.229 C -888 -3430.1083 -889.7192 -3428.389 -891.84 -3428.389 L -908.16 -3428.389 C -910.2808 -3428.389 -912 -3430.1083 -912 -3432.229 L -912 -3448.549 C -912 -3450.67 -910.2808 -3452.389 -908.16 -3452.389 L -891.84 -3452.389 C -889.7192 -3452.389 -888 -3450.67 -888 -3448.549 Z" fill="white"/>
        <path d="M -888 -3448.549 L -888 -3432.229 C -888 -3430.1083 -889.7192 -3428.389 -891.84 -3428.389 L -908.16 -3428.389 C -910.2808 -3428.389 -912 -3430.1083 -912 -3432.229 L -912 -3448.549 C -912 -3450.67 -910.2808 -3452.389 -908.16 -3452.389 L -891.84 -3452.389 C -889.7192 -3452.389 -888 -3450.67 -888 -3448.549 Z" stroke="black" stroke-linecap="round" stroke-linejoin="round" stroke-width=".25"/>
      </g>
      <g id="Group_9903">
        <title>distribute-h</title>
        <g id="Graphic_9904">
          <path d="M -894.5 -3436.056 L -905.5 -3436.056 C -906.33 -3436.056 -907 -3435.386 -907 -3434.556 L -907 -3433.556 C -907 -3432.726 -906.33 -3432.056 -905.5 -3432.056 L -894.5 -3432.056 C -893.67 -3432.056 -893 -3432.726 -893 -3433.556 L -893 -3434.556 C -893 -3435.386 -893.67 -3436.056 -894.5 -3436.056 Z M -894.5 -3437.056 C -893.12 -3437.056 -892 -3435.936 -892 -3434.556 L -892 -3433.556 C -892 -3432.176 -893.12 -3431.056 -894.5 -3431.056 L -905.5 -3431.056 C -906.88 -3431.056 -908 -3432.176 -908 -3433.556 L -908 -3434.556 C -908 -3435.936 -906.88 -3437.056 -905.5 -3437.056 Z" fill="#66727e"/>
        </g>
      </g>
      <g id="Group_9905">
        <title>close</title>
        <g id="Graphic_9906">
          <path d="M -899.6951 -3443.8416 L -899.6994 -3440.3315 C -899.6994 -3440.162 -899.8306 -3440.031 -900 -3440.031 C -900.1694 -3440.031 -900.3006 -3440.162 -900.3006 -3440.3315 L -900.3006 -3443.846 L -903.815 -3443.846 C -903.9844 -3443.846 -904.1156 -3443.977 -904.1156 -3444.1465 C -904.1156 -3444.316 -903.9844 -3444.447 -903.815 -3444.447 L -900.3006 -3444.447 L -900.2922 -3447.953 C -900.2922 -3448.1223 -900.1609 -3448.2536 -899.9915 -3448.2536 C -899.8222 -3448.2536 -899.6909 -3448.1223 -899.6909 -3447.953 L -899.6909 -3444.4386 L -896.185 -3444.4386 C -896.0199 -3444.443 -895.8844 -3444.3074 -895.8886 -3444.1422 C -895.8844 -3443.977 -896.0199 -3443.8416 -896.185 -3443.846 L -899.6994 -3443.846 Z" fill="#518738"/>
          <path d="M -899.6951 -3443.8416 L -899.6994 -3440.3315 C -899.6994 -3440.162 -899.8306 -3440.031 -900 -3440.031 C -900.1694 -3440.031 -900.3006 -3440.162 -900.3006 -3440.3315 L -900.3006 -3443.846 L -903.815 -3443.846 C -903.9844 -3443.846 -904.1156 -3443.977 -904.1156 -3444.1465 C -904.1156 -3444.316 -903.9844 -3444.447 -903.815 -3444.447 L -900.3006 -3444.447 L -900.2922 -3447.953 C -900.2922 -3448.1223 -900.1609 -3448.2536 -899.9915 -3448.2536 C -899.8222 -3448.2536 -899.6909 -3448.1223 -899.6909 -3447.953 L -899.6909 -3444.4386 L -896.185 -3444.4386 C -896.0199 -3444.443 -895.8844 -3444.3074 -895.8886 -3444.1422 C -895.8844 -3443.977 -896.0199 -3443.8416 -896.185 -3443.846 L -899.6994 -3443.846 Z" stroke="#518738" stroke-linecap="butt" stroke-linejoin="round" stroke-width=".25"/>
        </g>
      </g>
    </g>
  </g>
</svg>
